app/dist/common/images/grocery-outlet.svg

<svg height="18" viewBox="0 0 18 18" width="18" xmlns="http://www.w3.org/2000/svg"><path d="m0 0h18v18h-18z" fill="#b61f36"/><path d="m10.83 6.59a1.4 1.4 0 0 1 1.36-.82c.74 0 1.1.35 1.36.83.33.6.45 1.42.45 2.31 0 .8-.1 1.86-.45 2.5-.27.5-.65.82-1.34.82a1.4 1.4 0 0 1 -1.38-.83 5.82 5.82 0 0 1 -.44-2.49c0-.82.1-1.68.44-2.32zm1.38 6.41c2.35 0 2.79-2.4 2.79-4.09-.01-1.71-.45-3.91-2.8-3.91-2.39 0-2.8 2.3-2.8 3.91 0 1.53.38 4.09 2.82 4.09zm-6.04-6.54c.75 0 .82.61.88 1.54h1.95c0-1.74-.89-3-2.88-3-2.46 0-3.12 2.04-3.12 4.13 0 2.27.8 3.87 2.9 3.87.6 0 1.36-.24 1.8-.75l.4.75h.9v-4h-3v1.28h1.2c0 .5-.35 1.26-1.04 1.26-.95 0-.84-1.26-.84-2.59 0-1.21 0-2.5.85-2.5z" fill="#fff"/></svg>

<!-- by TradingView --><svg xmlns="http://www.w3.org/2000/svg" width="18" height="18" viewBox="0 0 18 18"><path fill="#B61F36" d="M0 0h18v18H0z"/><path d="M10.83 6.59a1.4 1.4 0 0 1 1.36-.82c.74 0 1.1.35 1.36.83.33.6.45 1.42.45 2.31 0 .8-.1 1.86-.45 2.5-.27.5-.65.82-1.34.82a1.4 1.4 0 0 1-1.38-.83 5.82 5.82 0 0 1-.44-2.49c0-.82.1-1.68.44-2.32ZM12.21 13C14.56 13 15 10.6 15 8.91 14.99 7.2 14.55 5 12.2 5 9.81 5 9.4 7.3 9.4 8.91c0 1.53.38 4.09 2.82 4.09ZM6.17 6.46c.75 0 .82.61.88 1.54H9c0-1.74-.89-3-2.88-3C3.66 5 3 7.04 3 9.13 3 11.4 3.8 13 5.9 13c.6 0 1.36-.24 1.8-.75l.4.75H9V9H6v1.28h1.2c0 .5-.35 1.26-1.04 1.26-.95 0-.84-1.26-.84-2.59 0-1.21 0-2.5.85-2.5Z" fill="#fff"/></svg>
